!!!OTL: Alles kommt zu seinem Ende (3-76), S. 211
!!!id: P1049
**kern
*clefG2
*k[f#]
*e:
{8g
8f#
=1
4.e
8b
8a
8g
=2
4g
4f#}
=3
{8g
8f#
=4
4e
[16e
8e]
8g
8f#
16e
=5yy
8e
8d#
=6
2e}
=7
{8g
8f#
=8
8.e
16f#
8g
8a
8b
8b
=9
8a
8g
4f#}
=10
{8g
8f#
=11
4e
[16e
8e]
8g
8f#
16e
=12yy
8e
8d#
=13
2e}
=14
{8g
8a
=15
4b
[16e
8e]
8a
8b
16e
=16yy
16e
8dd
8cc
8b
16e
=17
8b
8g
4a}
=18
{8b
8a
=19
8g
8a
4b
8a
8g
=20
2f#}
=21
{8g
8f#
=22
8.e
16f#
8g
8a
8b
8b
=23
8a
8g
4f#}
=24
{8g
8f#
=25
4e
[16e
8e]
8g
8f#
16e
=26yy
8e
8d#
=27
2e}
==
*-
!!!minrhy: 16
!!!meters: 3/4 ]  ZZ[8
!!!cut: Alles kommt zu seinem Ende (3-76), S. 211
!!!reg: Lothringen
!!!trd: PINCK, Louis: Verklingende Weisen, Bd3, Metz 1933
!!!rhy1: X_X_  X__.X_X_X_  X__X__   (x2)
!!!rhy2: X_X_  X__(^_X_X_)X_X_  X___
!!!key: P1049  16  E 3/4 ]  ZZ[8
!!!mod: ACHTTONSKALA MELODISCH MOLL OHNE 6]  AMBITUS[7
!!!kad: 21214221
!!!akz: 13b_11_14_11_55_3b2_14_11_
!!!fot: 'a__b__c__b__d__e__c__b__
!!!for: 'a__b__c__b__d__e__c__b__
!!!fok: '\__\__Sd_\__^a_Sd_Sd_\__
!! PHRAS[AUFTAKTIG]
!!!fkt: Sehnsucht, Kummer
!! LOTH VKL
!! PR[20] 2K[7] 2G[20] 3K[3] 3G[7] 4A[5] 4Ü[0] 5A[2] 6K[0] 6G[0]
!! 7K[0] 7G[0] 8A[0] MEHR[0] SI[43] ABS[60] SR[27] SP[17]
!! ST[12] 2k[3] 2g[12] 3k[10] 3g[10] 4d[2] 4ü[0] 5d[0] 6k[0] 6g[0]
!! 7k[0] 7g[0] 8d[0] mehr[0] si[37] dm[+6] sr[15] sp[22]
!! 1F[2] 2F[59] 3F[30] 4F[5] LF[0] 2P[2] 3P[3] 4P[0] TRI[0] DF[6] AB[64]
!! TF[0] U3K[0] U3[0] U4[0] U4Ü[0] U5[10] U6K[0] U6[2] U7K[0] U7[2]
!! N1[21] N2K[0] N2[15] N3K[0] N3[23] N4[11] N4Ü[0] N5[11] N6K[0] N6[5]
!!!n7k: 0] N7[0] O1[0] O2K[0] O2[0] O3K[0] O3[0] HÖ[0
